X:1
T:On a Time the Amorous Silvy
T:On a Time the Amorous Silvy
T:Copyright © CPDL
T:Copyright © CPDL
T:Copyright © CPDL
T:Copyright © CPDL
T:Copyright © CPDL
Z:Copyright © CPDL
%%score 1 { 2 ( 3 4 ) }
L:1/8
Q:1/4=180
M:4/4
K:Eb
V:1 treble nm="P1"
V:2 treble nm="P2"
V:3 bass nm="P3"
V:4 bass 
V:1
"^Editor: John Henry Fowler""^(  Revision:   5 - 3 - 2008  )""^Allegretto vivace, leggiero.""^From \"English Lyrics\" -  Set 7 -  Number 1" z8 | %1
w: |
"^Parry dedicated this work \"To Dolly\"""^Lyrics from John Attye's (fl. 1622)First Book of Airs, published 1622." z8 | %2
w: |
"^Charles Hubert Hastings Parry" z8 | z4"^( 1848 - 1918 )" z2!p! B,B, | G3 G AG F2 | G2 B6 | %6
w: |On a|time the a- mor- ous|Sil- vy|
 E2 EF G E3 |!<(! A6!<)! c2 |!p! G2 B2 z4 | z8 | E2 GA B2!<(! G2 | c4!<)! e3!>(! c | %12
w: Said to her shep- herd,|"Sweet how|do ye~?||Kiss me this once and|then God be|
 B2!>)! G2 z2 B2 | G2 B2 D4 | G2 B!<(!c d2!<)! B2 | e4!p! [Gg]3 e |!>(! d2 G2!>)! z4 | z8 | %18
w: with ye, My|sweet- est dear~!|Kiss me this once and|then God be|with ye,||
 z2!p! D2 G2 B2 | (=AG) D2 D2 G2 | E8 | z8 | z8 | z8 ||[K:G] z8 | z2!p! B2 d2 D2 | E3 F G2 A2 | %27
w: For now the|morn- * ing draw- eth|near.~"|||||With that, her|fair- est beau- ty|
 B2 d2 z4 | B4 d2 D2 | E2 G2 A2 D2 | G2 B2 z2 B2 | !fermata!d4!p! z2 G2 | .E2 .G2 .E2 .G2 | %33
w: show- ing,|Ope- ning her|lips, rich per- fumes|blow- ing, She|said, "~Now|kiss me and be|
!<(! (AB) c4!<)! A2 |!<(! B2 d2!<)!!p! D4 | E2 GA B2 G2 | c6 A2 | B2 d2 z4 | %38
w: go- * ing, my|sweet- est dear~!|Kiss me this once and|then be|go- ing;|
 z2!p!"^poco rit." G2 A3 G | _B2 d2 =F2 c2 ||[K:Eb] B6 z2 | z8 | z8 | z8 | z2!p! B2 B3 B | %45
w: For now the|morn- ing draw- eth|near."||||With that the|
 A2 B2 _G2 B2 | F2 B,2 z4 | z4 z2!<(! B2!<)! |!>(! d3 c!>)! B2 F2 | _G6 B2 | F2 B,2 z2!<)!!<(! B2 | %51
w: shep- herd waked from|sleep- ing,|And|spy- ing where the|day was|peep- ing, He|
 !fermata!d6!p! B2 | G2 B2 F2 B2 | (cd)!<(! e4!<)! c2 | B2 G2 E4 | E2 FG A2 F2 | %56
w: said, "Now|take my soul in|keep- * ing, my|sweet- est dear~!|Kiss me and take my|
!<(! (GA!<)! B4) G2 | F2 B,2"^poco rit." z4 | z8 |!pp! z2 E2 _G2 e2 | B8- | %61
w: soul _ _ in|keep- ing,||Since I must|go,|
 B2"^a tempo" _G2 F2 B2 | E8 | z8 | z8 | z8 |] %66
w: _ now day is|near."||||
V:2
 (B,EGA B2) .[CEc]2 |!<(! .[B,EG]6!<)! .[CEc]2 | z2 .[B,EG]2 z2 .[A,DB]2 | %3
 z2 .[B,EG]2 z2 .[A,DB]2 | (G,B,GE- [CEA]2) .[A,DF]2 | (G,B,GE- [CEA]2) .[A,DF]2 | %6
 (B,EGA [B,EB]2) .[B,EG]2 | (.[CEc]4 .[cec']2) z2 | (B,EGA [B,EB]2) .[CEc]2 | %9
 .[B,EB]2 .[CEc]2 .[B,EB]2 .[EAe]2 | (B,EGA [B,EB]2) .[B,EG]2 | (.[CEc]4 .[cec']2) z2 | %12
 (DGBc d2) .[D^FB]2 | (DGBc d2) .[D^FB]2 | (DGBc d2) [DGB]2 | ([EGe]4 .[ege']2) z2 | %16
 (DGBc d2) .[D^FB]2 | .[DGd]2 .[D^FB]2 .[DGd]2 .[DFB]2 | .[DBd]2 z2 [gb]4- | [gb]2 z2 [_A,DG]4 | %20
 [G,E]2 (GA) [B,EB]2 .[CEc]2 | [B,EG]2 z2 .[B,EG]2 .[CEc]2 | [B,EG]2 z2 .[B,EG]2 .[A,DFB]2 | %23
 ([G,B,E]2 [A,CF]2) [B,E]2 [=A,CF]2 ||[K:G] ([B,DG]4 [DGd]2) z2 | ([B,DG]4 [DGd]2) z2 | %26
 ([CE]4 [EG]2) [EGA]2 | ([DGB]4 [DGd]2) .[EGe]2 | ([DGB]4 [DGd]2) z2 | z2 [EG]2 [CFA]2 z2 | %30
 z2 [B,GB]2 z2 [GB]2 | !fermata![gb]6 z2 | .[CE]2 .[DG]2 .[CE]2 .[DG]2 | [CEA]2 z2 [CFA]4 | %34
 ([B,GB]2 [Dd]2) [A,D]4 | [CE]2 z2 [DG]2 z2 | [Ff]2 z2 [DFA]2 z2 | [B,EG]2 z2 x D!<(!B!<)!d | %38
 [G_Bg]2 z2 [=E-B]4 | [=Ed]2 z2 .[A,_EF]2 z2 ||[K:Eb] (FBde f2) .[GBg]2 | %41
 [FBd]4!>(! .[Bd]2!>)! .[E=Af]2 | [DB]4 .[FB]2 .[GBd]2 | [DF]4 z2[K:bass] B,2 | %44
!<(! (!>!A,B,) .A,2 (!>!_G,B,) .G,2 | (!>!F,!<)!A,) F,2 (!>!E,A,) E,2 | (F,B,DE F2) .[G,B,G]2 | %47
 !>![F,B,]6 B,2 | (!>!A,B,) A,2 (!>!F,B,) F,2 | (!>!_G,A,) G,2 (!>!E,A,) E,2 | %50
 [F,B,D]2 z2[K:treble] DFBd | .[Bdb]2 !fermata!z2 z4 | z2 [B,GB]2 z2 [B,FB]2 | %53
 z2 [EGe]2 z2 [CAc]2 | [B,EB]2 [B,EG]2 [A,CE]4 | z2 [B,E]2 z2 [A,DF]2 | z2 [G,EG]2 z2 [B,EB]2 | %57
 (FBde f2) !>![GBg]2 |!>(! [FBd]2 (([F=Af]2!>)! [FB]2)) [_A,D]2 | ([_G,E]8 | [B,_G]8) | %61
 z4 [A,B,=D]4 | (B,EGA B2) .[CEc]2 | .[EBe]2 .[Fef]2 .[Geg]2 .[Bdb]2 | !tenuto![ee']2 z2 [EGe]4- | %65
 [EGe]2 z2 z4 |] %66
V:3
!p!"^leggiero" (E,,B,,E,F, G,2) .[C,G,]2 |!<(! (E,,B,,E,F,!<)! G,2) .[C,G,]2 | %2
!p! (E,,B,,E,G, F,2) .B,,2 | (E,,B,,E,G, F,2) .B,,2 | (E,,B,,E,G, F,2) .B,,2 | %5
 (E,,B,,E,G, F,2) .B,,2 | (E,,B,,E,F, G,2) .E,2 | ([A,,E,F,]4 .[A,GA]2) z2 | %8
 (E,,B,,E,F, G,2) .[B,,G,]2 | .[E,G,]2 .[C,G,]2 .[E,G,]2 .[C,A,]2 | (E,,B,,E,F, G,2) .E,2 | %11
 ([C,=G,A,]4[K:treble] .[CG=A]2) z2 | (E,,B,,G,=A, B,2) .D,2 | (G,,D,G,=A, B,2) .D,2 | %14
 (G,,D,G,=A, B,2) G,2 | ([C,=G,A,]4[K:treble] .[C=GA]2) z2 | (G,,D,G,=A, B,2) .D,2 | %17
 .B,,2 .D,2 .B,,2 .D,2 | .[G,,D,]2 z2[K:treble] [Gd]4- | [Gd]2 z2[K:bass] B,,4 | %20
 (E,,B,,E,F, G,2) .[B,,G,]2 | (E,,B,,E,F, G,2) .[B,,G,]2 | (E,,B,,E,F, G,2) .B,,2 | %23
 (E,,B,,E,F, G,2) D,2 ||[K:G] (G,,D,G,A, B,2) D,2 | (G,,D,G,A, B,2) D,2 | (G,,E,G,C E2) C,2 | %27
 (G,,D,G,A, B,2) .E,2 | (G,,D,G,A, B,2) D,2 | (G,,E,G,C A,2) D,2 | (G,,D,G,A, B,2) [G,D]2 | %31
 !fermata![Gd]6 z2 | .[C,G,]2 .[B,,G,]2 .[C,G,]2 .[B,,G,]2 | [A,,E,]2 z2 D,4 | %34
 (G,,2 B,,2) [D,F,]4 | [C,G,]2 z2 [B,,G,]2 z2 | [A,,A,]2 z2 [D,A,]2 z2 | (G,,D,G,A, B, x x x) | %38
 [G,D=E]2 z2!p!"^poco rit." ([G,_B,]4 | [=F,_B,]2) z2 .=F,,2!mf! z2 || %40
[K:Eb]"^a tempo" (B,,F,B,C D2) .[F,D]2 | (B,,"^dim."F,!>(!B,D F2)!>)! .F,2 | (B,,F,B,C D2) .G,2 | %43
 (B,,F,B,C D2)!p! B,,2 |!<(! (!>!_A,,B,,) .A,,2 (!>!_G,,B,,) .G,,2 | %45
 (!>!F,,!<)!B,,) F,,2 (!>!E,,B,,) E,,2 |!p! (D,,F,,B,,C, D,2) .G,,2 | (D,,F,,B,,C, D,2)!p! B,,2 | %48
 (!>!A,,B,,) A,,2 (!>!F,,B,,) F,,2 | (!>!_G,,A,,) G,,2 (!>!E,,A,,) E,,2 | ([B,,,B,,]F,B,C x4) | %51
 .[B,F]2 !fermata!z2 z4 | E,2 z2 D,2 z2 | C,2 z2 A,,2 z2 | G,,2 E,,2 (A,,4 | G,,2) z2 F,,2 z2 | %56
 E,,2 z2 G,,2 z2 | (B,,F,B,C"^poco rit." D2) !>![G,D]2 | %58
"^dim."!>(! [F,D]2 ([E,C]2 [D,B,]2)!>)! [B,,F,]2 |!pp! ([_C,E,]8 | [_G,,_D,]8) | %61
"^a tempo" z4!p! B,,4 | (E,,B,,E,F, G,2)"^vivace" .[C,G,]2 | %63
 .[B,,G,B,]2!<(! .[A,,E,C]2 .[G,,E,B,]2 .[F,,B,,A,]2!<)! | !tenuto![E,,B,,G,]2 z2 ([E,B,]4 | %65
 E,,,2) z2 z4 |] %66
V:4
 x8 | x8 | x8 | x8 | x8 | x8 | x8 | x8 | x8 | x8 | x8 | x4[K:treble] x4 | x8 | x8 | x8 | %15
 x4[K:treble] x4 | x8 | x8 | x4[K:treble] x4 | x4[K:bass] x4 | x8 | x8 | x8 | x8 ||[K:G] x8 | x8 | %26
 G,,2 x2 x4 | x8 | G,,2 x2 x4 | G,,2 x2 x4 | G,,2 x2 x4 | x8 | x8 | x8 | x8 | x8 | x8 | x8 | x8 | %39
 x8 ||[K:Eb] x8 | x8 | x8 | x8 | x8 | x8 | x8 | x8 | x8 | x8 | x8 | x8 | x8 | x8 | x8 | x8 | x8 | %57
 x8 | x8 | x8 | x8 | x8 | x8 | x8 | x8 | x8 |] %66

